icons/black/cross_platfrom_disk_test.svg

<?xml version="1.0" encoding="UTF-8"?><svg id="a" xmlns="http://www.w3.org/2000/svg" viewBox="0 0 48 48"><defs><style>.b{fill:none;stroke:#000;stroke-linecap:round;stroke-linejoin:round;}</style></defs><path class="b" d="M9.5,5.5c-2.2091,0-4,1.7909-4,4v29c0,2.2091,1.7909,4,4,4h29c2.2091,0,4-1.7909,4-4V9.5c0-2.2091-1.7909-4-4-4H9.5Z"/><path class="b" d="M13.2403,39v-13.2489h2.981c3.2013,0,5.7964,2.5951,5.7964,5.7964v1.6561c0,3.2013-2.5951,5.7964-5.7964,5.7964h-2.981Z"/><path class="b" d="M25.9823,22.2489v-13.2489h4.3374c2.4521,0,4.44,1.9921,4.44,4.4496s-1.9878,4.4496-4.44,4.4496h-4.3374"/><line class="b" x1="25.9823" y1="25.7511" x2="34.7597" y2="25.7511"/><line class="b" x1="30.371" y1="39" x2="30.371" y2="25.7511"/><path class="b" d="M22.0177,17.806v.0543c0,2.4238-1.9649,4.3887-4.3887,4.3887h0c-2.4238,0-4.3887-1.9649-4.3887-4.3887v-4.4715c0-2.4238,1.9649-4.3887,4.3887-4.3887h0c2.4238,0,4.3887,1.9649,4.3887,4.3887v.0543"/></svg>

<svg xmlns="http://www.w3.org/2000/svg" viewBox="0 0 48 48"><defs><style>.a{fill:none;stroke:#000;stroke-linecap:round;stroke-linejoin:round;}</style></defs><path class="a" d="M7.5,5.5a2,2,0,0,0-2,2v33a2,2,0,0,0,2,2h33a2,2,0,0,0,2-2V7.5a2,2,0,0,0-2-2Z"/><path class="a" d="M13.24,39V25.7511h2.981a5.7964,5.7964,0,0,1,5.7964,5.7964v1.6561A5.7964,5.7964,0,0,1,16.2213,39Z"/><path class="a" d="M25.9823,22.2489V9H30.32a4.45,4.45,0,0,1,0,8.8991H25.9823"/><line class="a" x1="25.9823" y1="25.7511" x2="34.7597" y2="25.7511"/><line class="a" x1="30.371" y1="39" x2="30.371" y2="25.7511"/><path class="a" d="M22.0177,17.806V17.86a4.3887,4.3887,0,0,1-4.3887,4.3887h0A4.3887,4.3887,0,0,1,13.24,17.86V13.3887A4.3887,4.3887,0,0,1,17.629,9h0a4.3887,4.3887,0,0,1,4.3887,4.3887v.0543"/></svg>
